packages/Snapp/src/DownloadIcon/index.svg

<?xml version="1.0" encoding="UTF-8"?>
<svg width="24px" height="24px" viewBox="0 0 24 24" version="1.1" xmlns="http://www.w3.org/2000/svg" xmlns:xlink="http://www.w3.org/1999/xlink">
    <title>Icons/24/Download</title>
    <g id="Icons/24/Download" stroke="none" stroke-width="1" fill="none" fill-rule="evenodd">
        <rect id="Container" fill-opacity="0" fill="#D8D8D8" fill-rule="nonzero" x="0" y="0" width="24" height="24"></rect>
        <path d="M19,14 C19,13.4477153 19.4477153,13 20,13 C20.5522847,13 21,13.4477153 21,14 L21,18 C21,19.6568542 19.6568542,21 18,21 L6,21 C4.34314575,21 3,19.6568542 3,18 L3,14 C3,13.4477153 3.44771525,13 4,13 C4.55228475,13 5,13.4477153 5,14 L5,18 C5,18.5522847 5.44771525,19 6,19 L18,19 C18.5522847,19 19,18.5522847 19,18 L19,14 Z M11,12.5857864 L11,4 C11,3.44771525 11.4477153,3 12,3 C12.5522847,3 13,3.44771525 13,4 L13,12.5857864 L16.2928932,9.29289322 C16.6834175,8.90236893 17.3165825,8.90236893 17.7071068,9.29289322 C18.0976311,9.68341751 18.0976311,10.3165825 17.7071068,10.7071068 L12.7071068,15.7071068 C12.3165825,16.0976311 11.6834175,16.0976311 11.2928932,15.7071068 L6.29289322,10.7071068 C5.90236893,10.3165825 5.90236893,9.68341751 6.29289322,9.29289322 C6.68341751,8.90236893 7.31658249,8.90236893 7.70710678,9.29289322 L11,12.5857864 L11,12.5857864 Z" id="Shape" fill="#404040" fill-rule="nonzero"></path>
    </g>
</svg>

<svg viewBox="0 0 24 24" xmlns="http://www.w3.org/2000/svg" fill="currentColor" focusable="false">
  <path d="M19 14a1 1 0 012 0v4a3 3 0 01-3 3H6a3 3 0 01-3-3v-4a1 1 0 012 0v4a1 1 0 001 1h12a1 1 0 001-1v-4zm-8-1.414V4a1 1 0 012 0v8.586l3.293-3.293a1 1 0 011.414 1.414l-5 5a1 1 0 01-1.414 0l-5-5a1 1 0 011.414-1.414L11 12.586z" fill="none"/>
</svg>
